svg/24/trash--filled.svg

<svg width="24" height="24" viewBox="0 0 24 24" fill="currentColor" xmlns="http://www.w3.org/2000/svg"><path fill-rule="evenodd" clip-rule="evenodd" d="M12 1.25C9.92893 1.25 8.25 2.92893 8.25 5L3.75 5C3.33579 5 3 5.33579 3 5.75C3 6.16421 3.33579 6.5 3.75 6.5H5.08824L5.88926 20.1174C5.95145 21.1746 6.82686 22 7.88581 22H16.1142C17.1731 22 18.0486 21.1746 18.1107 20.1174L18.9118 6.5H20.25C20.6642 6.5 21 6.16421 21 5.75C21 5.33579 20.6642 5 20.25 5L15.75 5C15.75 2.92893 14.0711 1.25 12 1.25ZM14.25 5C14.25 3.75736 13.2426 2.75 12 2.75C10.7574 2.75 9.75 3.75736 9.75 5H14.25ZM10.25 8C10.6642 8 11 8.33579 11 8.75V18.25C11 18.6642 10.6642 19 10.25 19C9.83579 19 9.5 18.6642 9.5 18.25L9.5 8.75C9.5 8.33579 9.83579 8 10.25 8ZM14.5 8.75C14.5 8.33579 14.1642 8 13.75 8C13.3358 8 13 8.33579 13 8.75V18.25C13 18.6642 13.3358 19 13.75 19C14.1642 19 14.5 18.6642 14.5 18.25V8.75Z"/></svg>

<svg xmlns="http://www.w3.org/2000/svg" width="24" height="24" fill="currentColor" viewBox="0 0 24 24">
  <path fill-rule="evenodd" d="M12 1.25A3.75 3.75 0 0 0 8.25 5h-4.5a.75.75 0 0 0 0 1.5h1.338l.801 13.617A2 2 0 0 0 7.886 22h8.228a2 2 0 0 0 1.997-1.883l.8-13.617h1.339a.75.75 0 0 0 0-1.5h-4.5A3.75 3.75 0 0 0 12 1.25ZM14.25 5a2.25 2.25 0 0 0-4.5 0h4.5Zm-4 3a.75.75 0 0 1 .75.75v9.5a.75.75 0 0 1-1.5 0v-9.5a.75.75 0 0 1 .75-.75Zm4.25.75a.75.75 0 0 0-1.5 0v9.5a.75.75 0 0 0 1.5 0v-9.5Z" clip-rule="evenodd"/>
</svg>
